src/packages/tokens/img/bnb.svg

<svg width="24" height="24" viewBox="0 0 24 24" fill="none" xmlns="http://www.w3.org/2000/svg">
<g clip-path="url(#clip0_8_2956)">
<g clip-path="url(#clip1_8_2956)">
<path fill-rule="evenodd" clip-rule="evenodd" d="M12 0C18.6279 0 24 5.37212 24 12C24 18.6279 18.6279 24 12 24C5.37212 24 0 18.6279 0 12C0 5.37212 5.37212 0 12 0Z" fill="#F0B90B"/>
<path d="M6.5951 12L6.60375 15.1731L9.2999 16.7596V18.6173L5.02586 16.1106V11.0721L6.5951 12ZM6.5951 8.82693V10.676L5.0249 9.74712V7.89808L6.5951 6.96924L8.17298 7.89808L6.5951 8.82693ZM10.4259 7.89808L11.9961 6.96924L13.5739 7.89808L11.9961 8.82693L10.4259 7.89808Z" fill="white"/>
<path d="M7.72974 14.5154V12.6577L9.29993 13.5865V15.4356L7.72974 14.5154ZM10.4259 17.425L11.9961 18.3539L13.574 17.425V19.274L11.9961 20.2029L10.4259 19.274V17.425ZM15.8259 7.89808L17.3961 6.96924L18.974 7.89808V9.74712L17.3961 10.676V8.82693L15.8259 7.89808ZM17.3961 15.1731L17.4047 12L18.9749 11.0712V16.1096L14.7009 18.6164V16.7587L17.3961 15.1731Z" fill="white"/>
<path d="M16.2701 14.5154L14.7 15.4356V13.5866L16.2701 12.6577V14.5154Z" fill="white"/>
<path d="M16.2701 9.48462L16.2788 11.3423L13.5749 12.9288V16.1096L12.0047 17.0298L10.4345 16.1096V12.9288L7.7307 11.3423V9.48462L9.30762 8.55577L11.9951 10.15L14.699 8.55577L16.2769 9.48462H16.2701ZM7.72974 6.3125L11.9961 3.79712L16.2701 6.3125L14.6999 7.24135L11.9961 5.64712L9.29993 7.24135L7.72974 6.3125Z" fill="white"/>
</g>
</g>
<defs>
<clipPath id="clip0_8_2956">
<rect width="24" height="24" fill="white"/>
</clipPath>
<clipPath id="clip1_8_2956">
<rect width="24" height="24" fill="white"/>
</clipPath>
</defs>
</svg>

<svg xmlns="http://www.w3.org/2000/svg" width="24" height="24" fill="none" xmlns:v="https://vecta.io/nano"><g clip-path="url(#A)"><g clip-path="url(#B)"><path fill-rule="evenodd" d="M12 0a12 12 0 1 1 0 24 12 12 0 1 1 0-24z" fill="#f0b90b"/><g fill="#fff"><path d="M6.595 12l.009 3.173L9.3 16.76v1.858l-4.274-2.507v-5.039L6.595 12zm0-3.173v1.849l-1.57-.929V7.898l1.57-.929 1.578.929-1.578.929zm3.831-.929l1.57-.929 1.578.929-1.578.929-1.57-.929zM7.73 14.515v-1.858l1.57.929v1.849l-1.57-.92zm2.696 2.91l1.57.929 1.578-.929v1.849l-1.578.929-1.57-.929v-1.849zm5.4-9.527l1.57-.929 1.578.929v1.849l-1.578.929V8.827l-1.57-.929zm1.57 7.275L17.405 12l1.57-.929v5.038l-4.274 2.507v-1.858l2.695-1.586zm-1.126-.658l-1.57.92v-1.849l1.57-.929v1.858zm0-5.03l.009 1.858-2.704 1.587v3.181l-1.57.92-1.57-.92V12.93l-2.704-1.587V9.485l1.577-.929 2.687 1.594 2.704-1.594 1.578.929h-.007zM7.73 6.313l4.266-2.515 4.274 2.515-1.57.929-2.704-1.594L9.3 7.241l-1.57-.929z"/></g></g></g><defs><clipPath id="A"><path fill="#fff" d="M0 0h24v24H0z"/></clipPath><clipPath id="B"><path fill="#fff" d="M0 0h24v24H0z"/></clipPath></defs></svg>
